X: 55
T: Fang yang
%%abc-version 2.0
%%abcx-abcm2ps-target-version 5.9.1 (29 Sep 2008)
%%abc-creator hum2abc beta
%%abcx-conversion-date 2013/10/02 07:52:29
%%abc-edited-by Helmut Schaffrath
%%humdrum-veritas 1434862707
%%humdrum-veritas-data 4185877291
%%continueall 1
%%barnumbers 0
L: 1/16
M: 1/4
K: D
d2 e fe4 [I:setbarnb 1]| 
B2 d BA4 | 
B2 B d A2 B F | 
E8 | 
D4 | 
[M:2/4]A2 B FE4 | 
A2 A Bd4 | 
A2 d B A2 B F | 
A8 |]  



